svg/fluentui-system-icons/ic_fluent_document_mention_24_regular.svg

<svg width="24" height="24" viewBox="0 0 24 24" fill="none" xmlns="http://www.w3.org/2000/svg">
<path d="M18.5 20C18.5 20.275 18.276 20.5 18 20.5H12.0292C11.4884 21.0632 10.7817 21.4504 9.95461 21.5406C9.99798 21.6932 10.0209 21.8474 10.0248 22H18C19.104 22 20 21.104 20 20V9.828C20 9.298 19.789 8.789 19.414 8.414L13.585 2.586C13.57 2.57105 13.5531 2.55808 13.5363 2.5452C13.5238 2.53567 13.5115 2.5262 13.5 2.516C13.429 2.452 13.359 2.389 13.281 2.336C13.2557 2.31894 13.2281 2.30548 13.2005 2.29207C13.1845 2.28426 13.1685 2.27647 13.153 2.268C13.1363 2.25859 13.1197 2.24897 13.103 2.23933C13.0488 2.20797 12.9944 2.17648 12.937 2.152C12.74 2.07 12.528 2.029 12.313 2.014C12.2933 2.01274 12.2738 2.01008 12.2542 2.00741C12.2271 2.00371 12.1999 2 12.172 2H6C4.896 2 4 2.896 4 4V11.2831C4.47543 11.0917 4.97786 10.9532 5.5 10.875V4C5.5 3.725 5.724 3.5 6 3.5H12V8C12 9.104 12.896 10 14 10H18.5V20ZM13.5 4.621L17.378 8.5H14C13.724 8.5 13.5 8.275 13.5 8V4.621ZM4 14.1497V14.1511C4.44085 13.8214 4.94895 13.5767 5.5 13.4413C5.82041 13.3627 6.15533 13.32 6.5 13.32C8.80855 13.32 10.68 15.1915 10.68 17.5C10.68 18.4028 10.1338 19.04 9.58 19.04C9.16739 19.04 8.92 18.594 8.92 17.5V15.3L8.91398 15.2104C8.87027 14.8883 8.59413 14.64 8.26 14.64C8.01385 14.64 7.79918 14.7747 7.68626 14.9742C7.34849 14.7619 6.94959 14.64 6.5 14.64C5.01256 14.64 4.08 15.9747 4.08 17.5C4.08 18.3667 4.38108 19.1718 4.91395 19.7055C5.09122 19.8833 5.29416 20.0309 5.52023 20.1408C5.52027 20.141 5.52018 20.1406 5.52023 20.1408C5.81055 20.2818 6.13885 20.36 6.5 20.36C7.16971 20.36 7.72694 20.0894 8.13506 19.6526C8.46091 20.1049 8.93925 20.36 9.58 20.36C10.9119 20.36 12 19.0905 12 17.5C12 14.4624 9.53757 12 6.5 12C3.46243 12 1 14.4624 1 17.5C1 20.5376 3.46243 23 6.5 23C7.07088 23 7.6308 22.9128 8.16499 22.7433L8.39094 22.6661L8.47297 22.6297C8.70586 22.5067 8.8408 22.2572 8.82257 22C8.81825 21.94 8.8063 21.8796 8.78458 21.8202C8.75049 21.7271 8.69763 21.6463 8.63183 21.5805C8.45577 21.404 8.18667 21.3352 7.93712 21.4266L7.76577 21.4851L7.5202 21.5548C7.18981 21.6376 6.84802 21.68 6.5 21.68C4.19145 21.68 2.32 19.8085 2.32 17.5C2.32 16.1289 2.98017 14.9119 4 14.1497ZM5.5 18.1681V18.1665C5.43587 17.967 5.40078 17.7419 5.40078 17.5008C5.40078 17.2596 5.43587 17.0346 5.5 16.8351V16.8319C5.66932 16.3076 6.0394 15.96 6.5 15.96C7.1364 15.96 7.6 16.6235 7.6 17.5C7.6 18.3765 7.1364 19.04 6.5 19.04C6.0394 19.04 5.66932 18.6924 5.5 18.1681Z" fill="#212121"/>
</svg>

<svg xmlns="http://www.w3.org/2000/svg" width="24" height="24"><path d="M18.5 20a.5.5 0 0 1-.5.5h-5.97a3.36 3.36 0 0 1-2.075 1.04c.043.153.066.307.07.46H18a2 2 0 0 0 2-2V9.828a2 2 0 0 0-.586-1.414l-5.829-5.828a.491.491 0 0 0-.049-.04.63.63 0 0 1-.036-.03 2.072 2.072 0 0 0-.219-.18.652.652 0 0 0-.08-.044l-.048-.024-.05-.029c-.054-.031-.109-.063-.166-.087a1.977 1.977 0 0 0-.624-.138.56.56 0 0 1-.059-.007.605.605 0 0 0-.082-.007H6a2 2 0 0 0-2 2v7.283c.475-.191.978-.33 1.5-.408V4a.5.5 0 0 1 .5-.5h6V8a2 2 0 0 0 2 2h4.5v10Zm-5-15.379L17.378 8.5H14a.5.5 0 0 1-.5-.5V4.621ZM4 14.15v.001a4.162 4.162 0 0 1 2.5-.831 4.18 4.18 0 0 1 4.18 4.18c0 .903-.546 1.54-1.1 1.54-.413 0-.66-.446-.66-1.54v-2.2l-.006-.09a.66.66 0 0 0-1.228-.236A2.2 2.2 0 0 0 6.5 14.64c-1.487 0-2.42 1.335-2.42 2.86 0 .867.301 1.672.834 2.206.177.177.38.325.606.435.29.14.619.219.98.219.67 0 1.227-.27 1.635-.707.326.452.804.707 1.445.707 1.332 0 2.42-1.27 2.42-2.86a5.5 5.5 0 1 0-3.835 5.243l.226-.077.082-.036a.66.66 0 0 0-.536-1.203l-.171.058-.246.07A4.18 4.18 0 0 1 4 14.15Zm1.5 4.018v-.002a2.178 2.178 0 0 1-.1-.665c0-.241.036-.466.1-.666v-.003c.17-.524.54-.872 1-.872.636 0 1.1.663 1.1 1.54s-.464 1.54-1.1 1.54c-.46 0-.83-.348-1-.872Z"/></svg>
